img/svg/endreTiltak--hover.svg

<svg width="24" height="24" xmlns="http://www.w3.org/2000/svg"><g fill-rule="nonzero" fill="#0067C5"><path d="M.188 23.212a.5.5 0 0 0 .601.601l6.467-1.516a.531.531 0 0 0 .122-.047l-5.625-5.626a.496.496 0 0 0-.047.123L.188 23.212zM22.032 7.625l-.707.707-5.655-5.659.707-.707zM20.62 9.037L8.099 21.558l-5.657-5.657 12.52-12.52zM22.741 6.916l.354-.354a2.502 2.502 0 0 0 0-3.535L20.974.907a2.477 2.477 0 0 0-1.768-.733 2.48 2.48 0 0 0-1.768.733l-.354.353 5.657 5.656z"/></g></svg>

<?xml version="1.0" encoding="UTF-8" standalone="no"?>
<svg width="24px" height="24px" viewBox="0 0 24 24" version="1.1" xmlns="http://www.w3.org/2000/svg" xmlns:xlink="http://www.w3.org/1999/xlink">
    <!-- Generator: Sketch 47.1 (45422) - http://www.bohemiancoding.com/sketch -->
    <title>icon/fill/ pencil 2</title>
    <desc>Created with Sketch.</desc>
    <defs></defs>
    <g id="Vurdere-tiltak" stroke="none" stroke-width="1" fill="none" fill-rule="evenodd">
        <g id="AG_Tiltak-lagt-inn-av-sykmeldt-Copy" transform="translate(-126.000000, -1120.000000)" fill="#0067C5">
            <g id="icon/fill/-pencil-2" transform="translate(126.000000, 1120.000000)">
                <g id="pencil-2">
                    <path d="M0.188,23.212 C0.148,23.38 0.199,23.557 0.321,23.68 C0.44,23.799 0.613,23.854 0.789,23.813 L7.256,22.297 C7.299,22.287 7.339,22.27 7.378,22.25 L1.753,16.624 C1.732,16.663 1.716,16.704 1.706,16.747 L0.188,23.212 Z" id="Shape" fill-rule="nonzero"></path>
                    <rect id="Rectangle-path" fill-rule="nonzero" transform="translate(18.850460, 5.149383) rotate(135.020256) translate(-18.850460, -5.149383) " x="18.3504291" y="1.14913837" width="1.00006118" height="8.00048947"></rect>
                    <rect id="Rectangle-path" fill-rule="nonzero" transform="translate(11.531346, 12.469480) rotate(135.000000) translate(-11.531346, -12.469480) " x="2.67793136" y="8.46951791" width="17.7068302" height="7.99992328"></rect>
                    <path d="M22.741,6.916 L23.095,6.562 C24.07,5.588 24.07,4.002 23.095,3.027 L20.974,0.907 C20.502,0.433 19.874,0.174 19.206,0.174 C18.538,0.174 17.91,0.434 17.438,0.907 L17.084,1.26 L22.741,6.916 Z" id="Shape" fill-rule="nonzero"></path>
                </g>
            </g>
        </g>
    </g>
</svg>
